icons/chat/deprecated-accounts.svg

<!-- This Source Code Form is subject to the terms of the Mozilla Public
   - License, v. 2.0. If a copy of the MPL was not distributed with this
   - file, You can obtain one at http://mozilla.org/MPL/2.0/. -->
<svg xmlns="http://www.w3.org/2000/svg" viewBox="0 0 18 18">
  <path class="normal" d="M9 1.5C4.8 1.5 1.5 4.8 1.5 9c0 4.1 3.3 7.5 7.5 7.5 4.1 0 7.5-3.3 7.5-7.5S13.1 1.5 9 1.5zm0 2c.8 0 1.5.6 1.5 1.5 0 .8-.7 1.5-1.5 1.5-.9 0-1.5-.7-1.5-1.5 0-.9.6-1.5 1.5-1.5zm1.5 9.5c0 .8-.7 1.5-1.5 1.5-.9 0-1.5-.7-1.5-1.5V9c0-.9.6-1.5 1.5-1.5.8 0 1.5.6 1.5 1.5z"/>
</svg>

<svg xmlns="http://www.w3.org/2000/svg"
     viewBox="0 0 18 18">
  <path id="accounts" class="normal" d="M 9,1.5 C 4.8,1.5 1.5,4.8 1.5,9 c 0,4.1 3.3,7.5 7.5,7.5 4.1,0 7.5,-3.3 7.5,-7.5 C 16.5,4.8 13.1,1.5 9,1.5 Z m 0,2 C 9.8,3.5 10.5,4.1 10.5,5 10.5,5.8 9.8,6.5 9,6.5 8.1,6.5 7.5,5.8 7.5,5 7.5,4.1 8.1,3.5 9,3.5 Z M 10.5,13 C 10.5,13.8 9.8,14.5 9,14.5 8.1,14.5 7.5,13.8 7.5,13 l 0,-4 C 7.5,8.1 8.1,7.5 9,7.5 c 0.8,0 1.5,0.6 1.5,1.5 z"/>
</svg>
